X:14
T:Coppers And Brass/Rambling Pitchfork
T:Coppers and Brass
M: 6/8
L: 1/8
K: Gmaj
A||:B3 GBd|cBc ABc|BdB GBd|cAG FGA|B3 GBd|cBc ABc|d3 edc|1BAF G2 A:||2BAF G2 e||:
f3 fed|cBA FGA|Ggg gfg|afd d2 e|f3 fed|cBA FGA|B3 cAF|1AGF G2 e:||2AGF GBd||
T:Coppers and Brass, easier version
K:G
dc|BGB BG |AFA AFA|B3A3|GBd gdc|B3 BGB|AFA DFA|ded cAF|{B}AGF G:|:
Bc |f3 fed|{d}cAG FGA|g3gfg|acd dcG|fdd edd|cAG FGA|BGB cAF|AGFG2:|
T:Rambling Pitchfork, The
R: jig
M: 6/8
L: 1/8
K:D
||:F3 AFF |dFF AFD |GFG ABc |ded cAG|F3 AFF |dFF AFD |G3 BGB |AFD D3 :||:
d2e fed |ecA AFA |dcd efg |faf gec|d2e fed |ecA AGF |G3 BGB |AFD D3 :||

